X: 1138
T: İftirâkındır Sebep...
C: Hacı Ârif Bey
O: Turkey
F: http://compmusic.upf.edu/node/140
N: kurdilihicazkar--sarki--musemmen--iftirakindir_sebep--haci_arif_bey
N: makam= kurdilihicazkar
N: form= sarki
N: usul= musemmen = 8/8
M: 8/8
L: 1/16
K: C _B _e _A 
Q: 1/4=120
%%MIDI tuningsystem comma53
^f4 g2g4g2 =f2_7/8e2  | d4 _7/8e2dc c_1/4B.c6  | \
w:  İf ti râ kın  |  dır  se bep  *  *  *  bu   | 
d4 _7/8e2^f2 g2f2 e2_1/4b2  | a4 agg2 ^f_7/8edc _1/4B_7/8AG2  | 
w:  nâ le  vü  *  fer  |  yâ dı *  ma   SAZ  | 
^f4 g2g4g2 =f2_7/8e2  | d4 _7/8e2dc c_1/4B.c6  | \
w:  İf ti râ kın  |  dır  se bep  *  *  *  bu   | 
d4 _7/8e2^f2 g2f2 e2_1/4b2  | a4 agg4c3/2d/ _3/4efg2  | 
w:  nâ le  vü  *  fer  |  yâ dı *  ma   SAZ  | 
g4 f2e2 f2g2 a2b2  | g4 gffe edd6  | \
w:  Gel mez_ ol *  dun   |  sev di *  ğim  *  *  *  hay  | 
c2B2 A2G2 F2e2 d2c2  | 
w:  li  *  za man *  dır   | 
B2A2 {B}AGG4c3/2d/ _3/4efg2  | g4 f2e2 f2g2 a2b2  | \
w:  yâ *  *  nı *  ma   SAZ  |  Gel mez_ ol *  dun   | 
g4 gffe edd6  | 
w:  sev di *  ğim  *  *  *  hay  | 
c2B2 A2G2 F2e2 d2c2  | B2A2 {B}AGG4g6  | \
w:  li  *  za man *  dır   |  yâ *  *  nı *  ma   SAZ  | 
f4 g2g4g2 f2_2/4e2  | d4 c2g2 {b}=agg4z2  | 
w:  Kû şe  i  gur  |  bet te  kal *  *  *  dım   | 
f3_2/4e edd2 {_e}dcb2 =a2gf  | g{=a}gf_3/4e edd4g6  | \
w:  gel  *  ye *  tiş  *  *  *  im  |  dâ *  *  *  *  dı *  ma   SAZ  | 
f4 g2g4g2 f2_2/4e2  | 
w:  Kû şe  i  gur  | 
d4 c2g2 {b}=agg4z2  | f3_2/4e edd2 {_e}dcb2 =a2gf  | \
w:  bet te  kal *  *  *  dım   |  gel  *  ye *  tiş  *  *  *  im  | 
g{=a}gf_3/4e edd4c3/2d/ efg2  | 
w:  dâ *  *  *  *  dı *  ma   SAZ  | 
g4 f2e2 f2g2 a2b2  | g4 gffe edd6  | \
w:  Gel mez_ ol *  dun   |  sev di *  ğim  *  *  *  hay  | 
c2B2 A2G2 F2e2 d2c2  | 
w:  li  *  za man *  dır   | 
B2A2 {B}AGG4c3/2d/ _3/4efg2  | g4 f2e2 f2g2 a2b2  | \
w:  yâ *  *  nı *  ma   SAZ  |  Gel mez_ ol *  dun   | 
g4 gffe edd6  | 
w:  sev di *  ğim  *  *  *  hay  | 
c2B2 A2G2 F2e2 d2c2  | B2A2 {B}AGG4|
w:  li  *  za man *  dır   |  yâ *  *  nı *  ma    | 


